docs/favicon/file.svg

<svg xmlns:dc="http://purl.org/dc/elements/1.1/" xmlns:cc="http://creativecommons.org/ns#" xmlns:rdf="http://www.w3.org/1999/02/22-rdf-syntax-ns#" xmlns:svg="http://www.w3.org/2000/svg" xmlns="http://www.w3.org/2000/svg" xmlns:xlink="http://www.w3.org/1999/xlink" width="128pt" id="svg1" height="128pt"><defs id="defs3"><linearGradient y2=".50735295" y1="-1.0294118" xlink:href="#linearGradient841" x2=".63483149" x1=".56179774" id="linearGradient852" /><linearGradient xlink:href="#linearGradient841" id="linearGradient844" /><linearGradient y2=".50490195" y1=".49019608" xlink:href="#linearGradient841" x2=".10833333" x1="1.3833333" id="linearGradient845" /><linearGradient y2=".46568626" y1=".38235295" xlink:href="#linearGradient853" x2=".594697" x1="-.22348484" id="linearGradient840" /><linearGradient y2=".46354166" y1=".43229166" xlink:href="#linearGradient846" x2="1.2288733" x1=".01056338" id="linearGradient849" /><radialGradient xlink:href="#linearGradient853" r=".5" id="radialGradient864" fy=".14942528" fx=".5" cy=".5" cx=".5" /><linearGradient id="linearGradient841"><stop style="stop-color:#fff;stop-opacity:1" offset="0" id="stop842" /><stop style="stop-color:#fff;stop-opacity:0" offset="1" id="stop843" /></linearGradient><linearGradient id="linearGradient1290"><stop style="stop-color:#b2a269;stop-opacity:1" offset="0" id="stop1291" /><stop style="stop-color:#6d5b18;stop-opacity:1" offset="1" id="stop1292" /></linearGradient><linearGradient y2="-.74324322" y1=".8108108" xlink:href="#linearGradient1290" x2=".5" x1=".47535211" id="linearGradient860" /><linearGradient y2=".35555556" y1=".32222223" xlink:href="#linearGradient846" x2=".80985916" x1=".39788732" id="linearGradient851" /><linearGradient y2=".049019609" y1="1.2647059" xlink:href="#linearGradient846" x2=".5714286" x1=".64285713" id="linearGradient858" /><linearGradient id="linearGradient846"><stop style="stop-color:#e7e7e7;stop-opacity:1" offset="0" id="stop847" /><stop style="stop-color:#a5a5a5;stop-opacity:1" offset="1" id="stop848" /></linearGradient><linearGradient xlink:href="#linearGradient846" id="linearGradient850" /><linearGradient y2="1.2905406" y1="-1.1486486" xlink:href="#linearGradient853" x2=".26408452" x1="1.4647887" id="linearGradient859" /><linearGradient id="linearGradient853"><stop style="stop-color:#000;stop-opacity:.29752067" offset="0" id="stop854" /><stop style="stop-color:#000;stop-opacity:0" offset="1" id="stop855" /></linearGradient><radialGradient xlink:href="#linearGradient853" r=".5" id="radialGradient861" fy=".29885057" fx=".50704223" cy=".5" cx=".5" /><linearGradient id="linearGradient1507"><stop style="stop-color:#000;stop-opacity:.095505618" offset="0" id="stop1508" /><stop style="stop-color:#000;stop-opacity:0" offset="1" id="stop1510" /></linearGradient><linearGradient id="linearGradient1501"><stop style="stop-color:#fff;stop-opacity:1" offset="0" id="stop1502" /><stop style="stop-color:#fff;stop-opacity:0" offset="1" id="stop1504" /></linearGradient><linearGradient id="linearGradient1492"><stop style="stop-color:#dadada;stop-opacity:1" offset="0" id="stop1493" /><stop style="stop-color:#f1f1f1;stop-opacity:1" offset=".34923077" id="stop1496" /><stop style="stop-color:#f0f0f0;stop-opacity:1" offset="1" id="stop1494" /></linearGradient><linearGradient y2="1.1796875" y1=".2109375" xlink:href="#linearGradient1492" x2=".085470088" x1=".88034189" id="linearGradient1495" /><linearGradient y2="1.328125" y1=".328125" xlink:href="#linearGradient1492" x2="-.37606838" x1=".63247865" id="linearGradient1497" /><linearGradient y2=".546875" y1=".140625" xlink:href="#linearGradient1501" x2=".062992126" x1=".85826772" id="linearGradient1499" /><linearGradient y2=".0078125" y1=".9765625" xlink:href="#linearGradient1507" x2=".78260869" x1=".052173913" id="linearGradient1506" /><linearGradient y2=".796875" y1="-.5625" xlink:href="#linearGradient1507" x2=".62222224" x1=".31111112" id="linearGradient1556" /><radialGradient xlink:href="#linearGradient841" r=".5460667" id="radialGradient856" fy="3.52" fx=".5411765" cy=".89285713" cx=".5" /><linearGradient xlink:href="#linearGradient841" id="linearGradient1944" /></defs><path style="fill:#fff;fill-rule:evenodd;stroke-width:.42649043;stroke-opacity:.36477986" id="path930" d="M17.159384 6.3292894V43.068526 79.807768 116.547 153.28624H50.687024h33.52764H117.7423 151.26994V116.547 79.807768 43.068526L117.7423 6.3292894H84.214664 50.687024 17.159384z" /><g transform="matrix(0.304171,0.000000,0.000000,0.297572,-36.70399,-112.4880)" style="fill:url(#linearGradient1506)" id="g1552"><path style="fill-opacity:.75;fill-rule:evenodd;stroke-width:.95407495pt" id="path1505" d="M173.35959 408.8126V531.0736 653.3346 775.5956 897.8566H282.12187 390.88417 499.64646 608.40874V775.5956 653.3346 531.0736L499.64646 408.8126H390.88417 282.12187 173.35959z" /><path style="fill-opacity:.75;fill-rule:evenodd;stroke-width:.95407495pt" id="path1538" d="M170.125 407.1875C170.125 571.82292 170.125 736.45833 170.125 901.09375c147.17708.0 294.35417.0 441.53125.0.0-123.76041999999995.0-247.52083000000005.0-371.28125C574.80918 488.38978 537.97604 446.95335 501.09375 405.5625c-110.32292000000001.0-220.64583.0-330.96875.0.0.33332999999998947.0 1.4166700000000105.0 1.625z" /><path style="fill-opacity:.75;fill-rule:evenodd;stroke-width:.95407495pt" id="path1543" d="M166.875 403.9375C166.875 570.73958 166.875 737.54167 166.875 904.34375c149.34375.0 298.6875.0 448.03125.0.0-125.26041999999995.0-250.52083000000005.0-375.78125C577.45517 486.47298 540.01754 444.37017 502.53125 402.3125c-111.88542000000001.0-223.77083.0-335.65625.0.0.33332999999998947.0 1.4166700000000105.0 1.625z" /></g><path transform="matrix(0.296689,0.000000,0.000000,0.296689,-71.19601,-34.05825)" style="fill:url(#linearGradient1495);fill-opacity:1;fill-rule:evenodd;stroke:#000;stroke-width:1.4375;stroke-opacity:.36477986" id="rect900" d="M297.99034 136.74154V260.57234 384.40315 508.23395 632.06475H410.99634 524.00235 637.00835 750.01435V508.23395 384.40315 260.57234L637.00835 136.74154H524.00235 410.99634 297.99034z" /><rect y="16.710905" x="27.15877" width="74.377357" style="fill:#000;fill-opacity:.094339617;fill-rule:evenodd;stroke-width:1pt" id="rect1534" height="20.954082" /><rect y="48.976055" x="26.448841" width="115.28344" style="fill-opacity:.43396226;fill-rule:evenodd;stroke-width:1pt" id="rect1535" height="2.4428799" /><path transform="matrix(0.296689,0.000000,0.000000,0.296689,-71.19601,-34.05825)" style="fill:url(#linearGradient1499);fill-opacity:1;fill-rule:evenodd;stroke-width:1pt" id="path1500" d="M301.30655 174.90867 299.27069 628.90434h443.8164L743.34157 516.67783C733.41677 520.49506 633.15091 378.49417 506.9279 384.60173 380.59029 390.71484 413.27857 193.23136 301.30655 174.90867z" /><rect y="60.426273" x="26.448841" width="115.28344" style="fill-opacity:.43396226;fill-rule:evenodd;stroke-width:1pt" id="rect1536" height="2.4428799" /><rect y="71.876495" x="26.448841" width="110.99767" style="fill-opacity:.43396226;fill-rule:evenodd;stroke-width:1pt" id="rect1537" height="2.4428799" /><rect y="83.326706" x="26.448841" width="63.77132" style="fill-opacity:.43396226;fill-rule:evenodd;stroke-width:1pt" id="rect1538" height="2.4428799" /><rect y="94.776939" x="26.448841" width="63.098103" style="fill-opacity:.43396226;fill-rule:evenodd;stroke-width:1pt" id="rect1539" height="2.4428799" /><path transform="matrix(0.296689,0.000000,0.000000,0.296689,-71.19601,-34.05825)" style="fill:url(#linearGradient1497);fill-opacity:1;fill-rule:evenodd;stroke-width:.95407495pt" id="path906" d="M750.01435 260.57234C715.9446 250.48602 671.79788 251.91624 638.44792 257.66516 644.20618 220.71628 644.92597 174.41021 637.00835 136.74154L750.01435 260.57234z" /><rect y="82.362732" x="96.599358" width="44.721928" style="fill:#b9b9b9;fill-opacity:.27672955;fill-rule:evenodd;stroke:#000;stroke-width:1pt;stroke-opacity:.16352202" id="rect2441" height="42.933048" /><rect y="106.31729" x="26.509146" width="63.098103" style="fill-opacity:.43396226;fill-rule:evenodd;stroke-width:1pt" id="rect3029" height="2.4428799" /><rect y="117.76752" x="26.559019" width="63.77132" style="fill-opacity:.43396226;fill-rule:evenodd;stroke-width:1pt" id="rect3030" height="2.4428799" /><rect y="129.21773" x="26.559019" width="83.091194" style="fill-opacity:.43396226;fill-rule:evenodd;stroke-width:1pt" id="rect3031" height="2.4428799" /><rect y="140.66795" x="26.559019" width="115.28344" style="fill-opacity:.43396226;fill-rule:evenodd;stroke-width:1pt" id="rect3032" height="2.4428799" /></svg>

<svg xmlns:dc="http://purl.org/dc/elements/1.1/" xmlns:cc="http://creativecommons.org/ns#" xmlns:rdf="http://www.w3.org/1999/02/22-rdf-syntax-ns#" xmlns:svg="http://www.w3.org/2000/svg" xmlns="http://www.w3.org/2000/svg" xmlns:xlink="http://www.w3.org/1999/xlink" width="128pt" id="svg1" height="128pt"><defs id="defs3"><linearGradient y2=".50735295" y1="-1.0294118" xlink:href="#linearGradient841" x2=".63483149" x1=".56179774" id="linearGradient852"/><linearGradient xlink:href="#linearGradient841" id="linearGradient844"/><linearGradient y2=".50490195" y1=".49019608" xlink:href="#linearGradient841" x2=".10833333" x1="1.3833333" id="linearGradient845"/><linearGradient y2=".46568626" y1=".38235295" xlink:href="#linearGradient853" x2=".594697" x1="-.22348484" id="linearGradient840"/><linearGradient y2=".46354166" y1=".43229166" xlink:href="#linearGradient846" x2="1.2288733" x1=".01056338" id="linearGradient849"/><radialGradient xlink:href="#linearGradient853" r=".5" id="radialGradient864" fy=".14942528" fx=".5" cy=".5" cx=".5"/><linearGradient id="linearGradient841"><stop style="stop-color:#ffffff;stop-opacity:1" offset="0" id="stop842"/><stop style="stop-color:#ffffff;stop-opacity:0" offset="1" id="stop843"/></linearGradient><linearGradient id="linearGradient1290"><stop style="stop-color:#b2a269;stop-opacity:1" offset="0" id="stop1291"/><stop style="stop-color:#6d5b18;stop-opacity:1" offset="1" id="stop1292"/></linearGradient><linearGradient y2="-.74324322" y1=".8108108" xlink:href="#linearGradient1290" x2=".5" x1=".47535211" id="linearGradient860"/><linearGradient y2=".35555556" y1=".32222223" xlink:href="#linearGradient846" x2=".80985916" x1=".39788732" id="linearGradient851"/><linearGradient y2=".049019609" y1="1.2647059" xlink:href="#linearGradient846" x2=".5714286" x1=".64285713" id="linearGradient858"/><linearGradient id="linearGradient846"><stop style="stop-color:#e7e7e7;stop-opacity:1" offset="0" id="stop847"/><stop style="stop-color:#a5a5a5;stop-opacity:1" offset="1" id="stop848"/></linearGradient><linearGradient xlink:href="#linearGradient846" id="linearGradient850"/><linearGradient y2="1.2905406" y1="-1.1486486" xlink:href="#linearGradient853" x2=".26408452" x1="1.4647887" id="linearGradient859"/><linearGradient id="linearGradient853"><stop style="stop-color:#000000;stop-opacity:.29752067" offset="0" id="stop854"/><stop style="stop-color:#000000;stop-opacity:0" offset="1" id="stop855"/></linearGradient><radialGradient xlink:href="#linearGradient853" r=".5" id="radialGradient861" fy=".29885057" fx=".50704223" cy=".5" cx=".5"/><linearGradient id="linearGradient1507"><stop style="stop-color:#000000;stop-opacity:.095505618" offset="0" id="stop1508"/><stop style="stop-color:#000000;stop-opacity:0" offset="1" id="stop1510"/></linearGradient><linearGradient id="linearGradient1501"><stop style="stop-color:#ffffff;stop-opacity:1" offset="0" id="stop1502"/><stop style="stop-color:#ffffff;stop-opacity:0" offset="1" id="stop1504"/></linearGradient><linearGradient id="linearGradient1492"><stop style="stop-color:#dadada;stop-opacity:1" offset="0" id="stop1493"/><stop style="stop-color:#f1f1f1;stop-opacity:1" offset=".34923077" id="stop1496"/><stop style="stop-color:#f0f0f0;stop-opacity:1" offset="1" id="stop1494"/></linearGradient><linearGradient y2="1.1796875" y1=".2109375" xlink:href="#linearGradient1492" x2=".085470088" x1=".88034189" id="linearGradient1495"/><linearGradient y2="1.328125" y1=".328125" xlink:href="#linearGradient1492" x2="-.37606838" x1=".63247865" id="linearGradient1497"/><linearGradient y2=".546875" y1=".140625" xlink:href="#linearGradient1501" x2=".062992126" x1=".85826772" id="linearGradient1499"/><linearGradient y2=".0078125" y1=".9765625" xlink:href="#linearGradient1507" x2=".78260869" x1=".052173913" id="linearGradient1506"/><linearGradient y2=".796875" y1="-.5625" xlink:href="#linearGradient1507" x2=".62222224" x1=".31111112" id="linearGradient1556"/><radialGradient xlink:href="#linearGradient841" r=".5460667" id="radialGradient856" fy="3.52" fx=".5411765" cy=".89285713" cx=".5"/><linearGradient xlink:href="#linearGradient841" id="linearGradient1944"/></defs><path style="fill:#fff;fill-rule:evenodd;stroke-width:.42649043;stroke-opacity:.36477986" id="path930" d="M17.159384 6.3292894V43.068526 79.807768 116.547v36.73924h33.52764 33.52764H117.7423h33.52764V116.547 79.807768 43.068526L117.7423 6.3292894H84.214664 50.687024 17.159384z"/><g transform="matrix(0.304171,0.000000,0.000000,0.297572,-36.70399,-112.4880)" style="fill:url(#linearGradient1506)" id="g1552"><path style="fill-opacity:.75;fill-rule:evenodd;stroke-width:.95407495pt" id="path1505" d="M173.35959 408.8126v122.261 122.261 122.261 122.261H282.12187h108.7623H499.64646 608.40874V775.5956 653.3346 531.0736L499.64646 408.8126H390.88417 282.12187 173.35959z"/><path style="fill-opacity:.75;fill-rule:evenodd;stroke-width:.95407495pt" id="path1538" d="M170.125 407.1875c0 164.63542.0 329.27083.0 493.90625 147.17708.0 294.35417.0 441.53125.0.0-123.76042.0-247.52083.0-371.28125-36.84707-41.42272-73.68021-82.85915-110.5625-124.25-110.32292.0-220.64583.0-330.96875.0.0.333329999999989.0 1.41667000000001.0 1.625z"/><path style="fill-opacity:.75;fill-rule:evenodd;stroke-width:.95407495pt" id="path1543" d="M166.875 403.9375c0 166.80208.0 333.60417.0 500.40625 149.34375.0 298.6875.0 448.03125.0.0-125.26042.0-250.52083.0-375.78125C577.45517 486.47298 540.01754 444.37017 502.53125 402.3125c-111.88542.0-223.77083.0-335.65625.0.0.333329999999989.0 1.41667000000001.0 1.625z"/></g><path transform="matrix(0.296689,0.000000,0.000000,0.296689,-71.19601,-34.05825)" style="fill:url(#linearGradient1495);fill-opacity:1;fill-rule:evenodd;stroke:#000;stroke-width:1.4375;stroke-opacity:.36477986" id="rect900" d="M297.99034 136.74154v123.8308V384.40315v123.8308 123.8308h113.006H524.00235h113.006 113.006V508.23395 384.40315 260.57234l-113.006-123.8308h-113.006H410.99634h-113.006z"/><rect y="16.710905" x="27.15877" width="74.377357" style="fill:#000;fill-opacity:.094339617;fill-rule:evenodd;stroke-width:1pt" id="rect1534" height="20.954082"/><rect y="48.976055" x="26.448841" width="115.28344" style="fill-opacity:.43396226;fill-rule:evenodd;stroke-width:1pt" id="rect1535" height="2.4428799"/><path transform="matrix(0.296689,0.000000,0.000000,0.296689,-71.19601,-34.05825)" style="fill:url(#linearGradient1499);fill-opacity:1;fill-rule:evenodd;stroke-width:1pt" id="path1500" d="M301.30655 174.90867 299.27069 628.90434h443.8164L743.34157 516.67783C733.41677 520.49506 633.15091 378.49417 506.9279 384.60173 380.59029 390.71484 413.27857 193.23136 301.30655 174.90867z"/><rect y="60.426273" x="26.448841" width="115.28344" style="fill-opacity:.43396226;fill-rule:evenodd;stroke-width:1pt" id="rect1536" height="2.4428799"/><rect y="71.876495" x="26.448841" width="110.99767" style="fill-opacity:.43396226;fill-rule:evenodd;stroke-width:1pt" id="rect1537" height="2.4428799"/><rect y="83.326706" x="26.448841" width="63.77132" style="fill-opacity:.43396226;fill-rule:evenodd;stroke-width:1pt" id="rect1538" height="2.4428799"/><rect y="94.776939" x="26.448841" width="63.098103" style="fill-opacity:.43396226;fill-rule:evenodd;stroke-width:1pt" id="rect1539" height="2.4428799"/><path transform="matrix(0.296689,0.000000,0.000000,0.296689,-71.19601,-34.05825)" style="fill:url(#linearGradient1497);fill-opacity:1;fill-rule:evenodd;stroke-width:.95407495pt" id="path906" d="M750.01435 260.57234C715.9446 250.48602 671.79788 251.91624 638.44792 257.66516 644.20618 220.71628 644.92597 174.41021 637.00835 136.74154l113.006 123.8308z"/><rect y="82.362732" x="96.599358" width="44.721928" style="fill:#b9b9b9;fill-opacity:.27672955;fill-rule:evenodd;stroke:#000;stroke-width:1pt;stroke-opacity:.16352202" id="rect2441" height="42.933048"/><rect y="106.31729" x="26.509146" width="63.098103" style="fill-opacity:.43396226;fill-rule:evenodd;stroke-width:1pt" id="rect3029" height="2.4428799"/><rect y="117.76752" x="26.559019" width="63.77132" style="fill-opacity:.43396226;fill-rule:evenodd;stroke-width:1pt" id="rect3030" height="2.4428799"/><rect y="129.21773" x="26.559019" width="83.091194" style="fill-opacity:.43396226;fill-rule:evenodd;stroke-width:1pt" id="rect3031" height="2.4428799"/><rect y="140.66795" x="26.559019" width="115.28344" style="fill-opacity:.43396226;fill-rule:evenodd;stroke-width:1pt" id="rect3032" height="2.4428799"/></svg>
